X: 108102
Q:"Reel."
M: C
L: 1/8
K: A
E2(CE) A,ECE | A,ECE FB,B,F |\
E2(CE) A,ECe | ceBd cA A :|\
d |\
cAeA fAeA | cAeA fBBe |
cAeA fAeA | EFAB cAAd |\
(c/B/A)(eA) fAeA | (c/B/A)(eA) fBBe |\
ceAc dfBc | EFAB cA A |]


